;FLAVOR:Marlin
;TIME:5082
;Filament used: 2.14363m
;Layer height: 0.2
;MINX:80.325
;MINY:58.878
;MINZ:0.2
;MAXX:135.608
;MAXY:146.208
;MAXZ:32
;TARGET_MACHINE.NAME:Creality Ender-3
;Generated with Cura_SteamEngine 5.9.0
M140 S50
M105
M190 S50
M104 S200
M105
M109 S200
M82 ;absolute extrusion mode
; Ender 3 Custom Start G-code
G92 E0 ; Reset Extruder
G28 ; Home all axes
G1 Z2.0 F3000 ; Move Z Axis up little to prevent scratching of Heat Bed
G1 X0.1 Y20 Z0.3 F5000.0 ; Move to start position
G1 X0.1 Y200.0 Z0.3 F1500.0 E15 ; Draw the first line
G1 X0.4 Y200.0 Z0.3 F5000.0 ; Move to side a little
G1 X0.4 Y20 Z0.3 F1500.0 E30 ; Draw the second line
G92 E0 ; Reset Extruder
G1 Z2.0 F3000 ; Move Z Axis up little to prevent scratching of Heat Bed
G1 X5 Y20 Z0.3 F5000.0 ; Move over to prevent blob squish
G92 E0
G92 E0
G1 F2700 E-5
;LAYER_COUNT:160
;LAYER:0
M107
G0 F6000 X103.482 Y146.208 Z0.2
;TYPE:SKIRT
G1 F2700 E0
G1 F1200 X99.845 Y146.061 E0.12107
G1 X97.316 Y146.035 E0.20519
G1 X96.026 Y146.039 E0.24809
G1 X95.052 Y145.996 E0.28052
G1 X94.157 Y145.879 E0.31054
G1 X93.029 Y145.623 E0.34901
G1 X91.696 Y145.242 E0.39512
G1 X90.977 Y145.02 E0.42015
G1 X90.062 Y144.689 E0.45251
G1 X89.18 Y144.278 E0.48488
G1 X88.336 Y143.791 E0.51729
G1 X87.596 Y143.274 E0.54731
G1 X86.53 Y142.352 E0.59419
G1 X85.571 Y141.404 E0.63904
G1 X84.915 Y140.732 E0.67027
G1 X84.315 Y140.057 E0.70031
G1 X83.693 Y139.217 E0.73508
G1 X83.186 Y138.385 E0.76748
G1 X82.768 Y137.537 E0.79893
G1 X82.299 Y136.276 E0.84367
G1 X81.968 Y135.178 E0.88182
G1 X81.708 Y134.252 E0.91381
G1 X81.493 Y133.304 E0.94614
G1 X81.36 Y132.338 E0.97857
G1 X81.315 Y131.403 E1.0097
G1 X81.341 Y130.578 E1.03716
G1 X81.498 Y128.514 E1.106
G1 X81.633 Y125.985 E1.19024
G1 X81.696 Y123.45 E1.27458
G1 X81.687 Y120.938 E1.35813
G1 X81.606 Y118.399 E1.44262
G1 X81.438 Y115.604 E1.53575
G1 X81.423 Y114.701 E1.56579
G1 X81.471 Y113.91 E1.59215
G1 X81.58 Y112.787 E1.62967
G1 X81.797 Y110.191 E1.71632
G1 X81.929 Y107.719 E1.79865
G1 X81.997 Y105.143 E1.88436
G1 X81.991 Y102.638 E1.96768
G1 X81.913 Y100.121 E2.05143
G1 X81.767 Y97.615 E2.13492
G1 X81.547 Y95.105 E2.21873
G1 X81.262 Y92.65 E2.30093
G1 X80.891 Y90.083 E2.3872
G1 X80.518 Y87.906 E2.46066
G1 X80.403 Y87.001 E2.491
G1 X80.366 Y86.552 E2.50599
G1 X80.325 Y85.587 E2.53811
G1 X80.391 Y84.302 E2.58091
G1 X80.463 Y83.626 E2.60352
G1 X80.598 Y82.733 E2.63356
G1 X80.746 Y82.08 E2.65583
G1 X80.876 Y81.576 E2.67314
G1 X81.185 Y80.583 E2.70773
G1 X81.286 Y80.307 E2.7175
G1 X81.632 Y79.473 E2.74753
G1 X81.819 Y79.071 E2.76228
G1 X82.392 Y77.998 E2.80274
G1 X82.594 Y77.666 E2.81566
G1 X83.305 Y76.635 E2.85732
G1 X83.629 Y76.219 E2.87486
G1 X84.377 Y75.356 E2.91284
G1 X84.609 Y75.117 E2.92392
G1 X85.288 Y74.473 E2.95504
G1 X85.836 Y74.002 E2.97908
G1 X88.245 Y72.03 E3.08262
G1 X90.191 Y70.336 E3.16844
G1 X91.997 Y68.674 E3.25007
G1 X93.814 Y66.906 E3.33439
G1 X95.592 Y65.073 E3.41932
G1 X97.381 Y63.136 E3.50702
G1 X98.029 Y62.467 E3.538
G1 X98.741 Y61.803 E3.57038
G1 X99.451 Y61.246 E3.6004
G1 X100.328 Y60.676 E3.63519
G1 X101.19 Y60.222 E3.66759
G1 X102.08 Y59.849 E3.69969
G1 X102.76 Y59.624 E3.72351
G1 X103.558 Y59.392 E3.75115
G1 X104.109 Y59.244 E3.77012
G1 X105.061 Y59.037 E3.80253
G1 X106.026 Y58.915 E3.83488
G1 X106.999 Y58.878 E3.86726
G1 X107.901 Y58.922 E3.8973
G1 X108.93 Y59.063 E3.93185
G1 X109.716 Y59.238 E3.95863
G1 X110.473 Y59.437 E3.98466
G1 X111.251 Y59.668 E4.01165
G1 X112.135 Y59.983 E4.04287
G1 X113.052 Y60.405 E4.07644
G1 X113.896 Y60.889 E4.1088
G1 X114.638 Y61.404 E4.13884
G1 X115.41 Y62.045 E4.17222
G1 X115.875 Y62.493 E4.19369
G1 X116.468 Y63.108 E4.22211
G1 X120.089 Y67.065 E4.40051
G1 X120.672 Y67.755 E4.43055
G1 X121.125 Y68.381 E4.45625
G1 X122.335 Y70.185 E4.5285
G1 X123.78 Y72.224 E4.61162
G1 X125.31 Y74.259 E4.6963
G1 X126.853 Y76.195 E4.77864
G1 X128.485 Y78.128 E4.86278
G1 X130.216 Y80.063 E4.94913
G1 X132.152 Y82.136 E5.04348
G1 X132.761 Y82.85 E5.07469
G1 X133.345 Y83.674 E5.10828
G1 X133.836 Y84.515 E5.14067
G1 X134.222 Y85.331 E5.17069
G1 X134.622 Y86.439 E5.20987
G1 X135.028 Y87.792 E5.25686
G1 X135.223 Y88.506 E5.28147
G1 X135.436 Y89.455 E5.31382
G1 X135.566 Y90.426 E5.34641
G1 X135.608 Y91.527 E5.38305
G1 X135.593 Y92.667 E5.42097
G1 X135.572 Y93.43 E5.44636
G1 X135.574 Y95.992 E5.53157
G1 X135.608 Y97.674 E5.58753
G1 X135.586 Y98.577 E5.61757
G1 X135.469 Y99.61 E5.65215
G1 X135.299 Y100.464 E5.68111
G1 X135.021 Y101.607 E5.72023
G1 X134.444 Y104.12 E5.80599
G1 X133.942 Y106.635 E5.89129
G1 X133.526 Y109.079 E5.97375
G1 X133.172 Y111.584 E6.05789
G1 X132.895 Y114.05 E6.14043
G1 X132.68 Y116.585 E6.22504
G1 X132.542 Y119.082 E6.30822
G1 X132.474 Y121.579 E6.3913
G1 X132.48 Y122.685 E6.42809
G1 X132.47 Y122.931 E6.43628
G1 X132.466 Y124.198 E6.47842
G1 X132.423 Y125.1 E6.50845
G1 X132.28 Y126.136 E6.54324
G1 X132.069 Y127.051 E6.57447
G1 X131.756 Y128.009 E6.60799
G1 X131.39 Y128.868 E6.63905
G1 X131.077 Y129.473 E6.6617
G1 X130.675 Y130.196 E6.68922
G1 X130.127 Y131.146 E6.72569
G1 X129.672 Y131.907 E6.75518
G1 X129.134 Y132.721 E6.78764
G1 X128.526 Y133.48 E6.81998
G1 X127.881 Y134.158 E6.85111
G1 X127.293 Y134.687 E6.87741
G1 X125.527 Y136.126 E6.95318
G1 X123.607 Y137.767 E7.03719
G1 X121.733 Y139.465 E7.1213
G1 X119.892 Y141.223 E7.20596
G1 X119.184 Y141.839 E7.23718
G1 X118.367 Y142.432 E7.27075
G1 X117.531 Y142.931 E7.30313
G1 X116.719 Y143.326 E7.33317
G1 X115.388 Y143.807 E7.38024
G1 X113.944 Y144.224 E7.43023
G1 X113.204 Y144.418 E7.45567
G1 X112.623 Y144.552 E7.47551
G1 X111.069 Y144.868 E7.52825
G1 X108.505 Y145.433 E7.61557
G1 X106.589 Y145.906 E7.68121
G1 X105.635 Y146.095 E7.71356
G1 X104.737 Y146.194 E7.74361
G1 X103.482 Y146.208 E7.78535
G0 F6000 X104.693 Y145.796
G1 F1200 X103.498 Y145.808 E7.8251
G1 X99.861 Y145.661 E7.94617
G1 X97.319 Y145.635 E8.03072
G1 X96.043 Y145.639 E8.07316
G1 X95.104 Y145.599 E8.10442
G1 X94.209 Y145.482 E8.13444
G1 X93.139 Y145.238 E8.17094
G1 X91.814 Y144.86 E8.21677
G1 X91.113 Y144.644 E8.24117
G1 X90.23 Y144.326 E8.27238
G1 X89.379 Y143.931 E8.30359
G1 X88.565 Y143.463 E8.33482
G1 X87.825 Y142.946 E8.36484
G1 X86.811 Y142.067 E8.40947
G1 X85.857 Y141.125 E8.45407
G1 X85.214 Y140.466 E8.48469
G1 X84.614 Y139.791 E8.51473
G1 X84.034 Y139.009 E8.54711
G1 X83.545 Y138.208 E8.57832
G1 X83.127 Y137.36 E8.60977
G1 X82.682 Y136.16 E8.65234
G1 X82.353 Y135.07 E8.6902
G1 X82.098 Y134.163 E8.72154
G1 X81.889 Y133.249 E8.75273
G1 X81.76 Y132.319 E8.78395
G1 X81.715 Y131.384 E8.81509
G1 X81.74 Y130.608 E8.84091
G1 X81.897 Y128.544 E8.90976
G1 X82.033 Y125.995 E8.99466
G1 X82.096 Y123.46 E9.079
G1 X82.087 Y120.937 E9.16292
G1 X82.006 Y118.386 E9.2478
G1 X81.838 Y115.597 E9.34074
G1 X81.823 Y114.694 E9.37077
G1 X81.869 Y113.949 E9.3956
G1 X81.978 Y112.826 E9.43313
G1 X82.195 Y110.224 E9.51997
G1 X82.329 Y107.73 E9.60304
G1 X82.397 Y105.154 E9.68875
G1 X82.391 Y102.637 E9.77246
G1 X82.313 Y100.109 E9.85659
G1 X82.166 Y97.592 E9.94044
G1 X81.945 Y95.07 E10.02465
G1 X81.658 Y92.593 E10.10758
G1 X81.287 Y90.026 E10.19385
G1 X80.915 Y87.856 E10.26708
G1 X80.802 Y86.968 E10.29685
G1 X80.766 Y86.535 E10.3113
G1 X80.725 Y85.57 E10.34343
G1 X80.789 Y84.344 E10.38426
G1 X80.859 Y83.686 E10.40627
G1 X80.994 Y82.793 E10.43631
G1 X81.133 Y82.18 E10.45721
G1 X81.258 Y81.695 E10.47387
G1 X81.561 Y80.72 E10.50783
G1 X81.662 Y80.444 E10.5176
G1 X81.995 Y79.642 E10.54649
G1 X82.182 Y79.24 E10.56123
G1 X82.734 Y78.206 E10.60022
G1 X82.936 Y77.874 E10.61314
G1 X83.621 Y76.881 E10.65327
G1 X83.945 Y76.465 E10.67081
G1 X84.665 Y75.634 E10.70738
G1 X84.884 Y75.407 E10.71787
G1 X85.549 Y74.776 E10.74836
G1 X86.089 Y74.312 E10.77204
G1 X88.508 Y72.332 E10.87601
G1 X90.454 Y70.638 E10.96182
G1 X92.276 Y68.961 E11.04418
G1 X94.093 Y67.193 E11.1285
G1 X95.886 Y65.344 E11.21417
G1 X97.668 Y63.414 E11.30154
G1 X98.302 Y62.759 E11.33186
G1 X98.988 Y62.118 E11.36308
G1 X99.698 Y61.561 E11.3931
G1 X100.515 Y61.03 E11.42551
G1 X101.345 Y60.591 E11.45674
G1 X102.206 Y60.229 E11.4878
G1 X102.872 Y60.008 E11.51114
G1 X103.662 Y59.778 E11.53851
G1 X104.195 Y59.635 E11.55686
G1 X105.112 Y59.434 E11.58809
G1 X106.042 Y59.315 E11.61927
G1 X106.98 Y59.278 E11.65049
G1 X107.882 Y59.322 E11.68053
G1 X108.843 Y59.454 E11.71279
G1 X109.614 Y59.625 E11.73906
G1 X110.36 Y59.821 E11.76471
G1 X111.117 Y60.045 E11.79097
G1 X112.001 Y60.36 E11.82218
G1 X112.853 Y60.752 E11.85338
G1 X113.668 Y61.218 E11.8846
G1 X114.41 Y61.733 E11.91464
G1 X115.154 Y62.352 E11.94683
G1 X115.587 Y62.771 E11.96687
G1 X116.173 Y63.378 E11.99493
G1 X119.783 Y67.323 E12.17279
G1 X120.366 Y68.013 E12.20284
G1 X120.793 Y68.604 E12.22709
G1 X122.003 Y70.408 E12.29933
G1 X123.46 Y72.464 E12.38315
G1 X124.997 Y74.508 E12.46821
G1 X126.547 Y76.453 E12.55093
G1 X128.187 Y78.395 E12.63547
G1 X129.918 Y80.33 E12.72182
G1 X131.848 Y82.396 E12.81585
G1 X132.457 Y83.11 E12.84707
G1 X133 Y83.876 E12.8783
G1 X133.474 Y84.686 E12.90951
G1 X133.86 Y85.502 E12.93954
G1 X134.239 Y86.554 E12.97673
G1 X134.642 Y87.898 E13.02339
G1 X134.833 Y88.594 E13.0474
G1 X135.04 Y89.509 E13.0786
G1 X135.166 Y90.442 E13.10991
G1 X135.208 Y91.522 E13.14586
G1 X135.193 Y92.656 E13.18358
G1 X135.172 Y93.419 E13.20897
G1 X135.174 Y95.992 E13.29455
G1 X135.208 Y97.664 E13.35017
G1 X135.186 Y98.567 E13.38021
G1 X135.077 Y99.532 E13.41251
G1 X134.91 Y100.369 E13.4409
G1 X134.632 Y101.512 E13.48003
G1 X134.054 Y104.031 E13.56599
G1 X133.55 Y106.557 E13.65166
G1 X133.132 Y109.012 E13.73449
G1 X132.776 Y111.528 E13.819
G1 X132.496 Y114.016 E13.90227
G1 X132.282 Y116.551 E13.98689
G1 X132.142 Y119.071 E14.07083
G1 X132.074 Y121.568 E14.15392
G1 X132.08 Y122.669 E14.19054
G1 X132.07 Y122.915 E14.19872
G1 X132.066 Y124.179 E14.24077
G1 X132.023 Y125.081 E14.2708
G1 X131.89 Y126.046 E14.3032
G1 X131.679 Y126.961 E14.33443
G1 X131.388 Y127.852 E14.36561
G1 X131.022 Y128.711 E14.39666
G1 X130.728 Y129.278 E14.4179
G1 X130.328 Y129.996 E14.44524
G1 X129.783 Y130.941 E14.48152
G1 X129.338 Y131.687 E14.51042
G1 X128.821 Y132.471 E14.54165
G1 X128.236 Y133.204 E14.57284
G1 X127.591 Y133.882 E14.60397
G1 X127.038 Y134.379 E14.6287
G1 X126.499 Y134.826 E14.65199
G1 X125.267 Y135.822 E14.70468
G1 X123.347 Y137.463 E14.78869
G1 X121.464 Y139.169 E14.8732
G1 X119.629 Y140.921 E14.95758
G1 X118.921 Y141.537 E14.98879
G1 X118.162 Y142.089 E15.02001
G1 X117.356 Y142.571 E15.05124
G1 X116.544 Y142.966 E15.08128
G1 X115.277 Y143.423 E15.12607
G1 X113.842 Y143.837 E15.17575
G1 X113.114 Y144.028 E15.20078
G1 X112.543 Y144.16 E15.22027
G1 X110.983 Y144.477 E15.27322
G1 X108.419 Y145.043 E15.36055
G1 X106.511 Y145.514 E15.42592
G1 X105.591 Y145.697 E15.45712
G1 X104.693 Y145.796 E15.48717
G0 F6000 X105.547 Y145.299
G1 F1200 X104.649 Y145.398 E15.51721
G1 X103.514 Y145.408 E15.55497
G1 X99.877 Y145.261 E15.67603
G1 X97.322 Y145.235 E15.76102
G1 X96.059 Y145.239 E15.80302
G1 X95.156 Y145.202 E15.83308
G1 X94.261 Y145.085 E15.8631
G1 X93.249 Y144.853 E15.89764
G1 X91.932 Y144.478 E15.94318
G1 X91.248 Y144.267 E15.96699
G1 X90.398 Y143.963 E15.99701
G1 X89.578 Y143.584 E16.02706
G1 X88.794 Y143.135 E16.05711
G1 X88.054 Y142.618 E16.08713
G1 X87.092 Y141.782 E16.12952
G1 X86.143 Y140.846 E16.17386
G1 X85.513 Y140.2 E16.20387
G1 X84.913 Y139.525 E16.23391
G1 X84.375 Y138.8 E16.26393
G1 X83.903 Y138.03 E16.29397
G1 X83.502 Y137.221 E16.324
G1 X83.065 Y136.044 E16.36576
G1 X82.738 Y134.962 E16.40336
G1 X82.488 Y134.073 E16.43407
G1 X82.285 Y133.194 E16.46408
G1 X82.16 Y132.299 E16.49413
G1 X82.115 Y131.397 E16.52417
G1 X82.139 Y130.638 E16.54943
G1 X82.296 Y128.574 E16.61828
G1 X82.433 Y126.005 E16.70384
G1 X82.496 Y123.47 E16.78818
G1 X82.487 Y120.936 E16.87247
G1 X82.406 Y118.373 E16.95775
G1 X82.238 Y115.59 E17.05049
G1 X82.223 Y114.687 E17.08052
G1 X82.267 Y113.988 E17.10382
G1 X82.377 Y112.859 E17.14155
G1 X82.593 Y110.257 E17.22839
G1 X82.729 Y107.741 E17.31219
G1 X82.797 Y105.165 E17.3979
G1 X82.791 Y102.636 E17.48201
G1 X82.713 Y100.097 E17.5665
G1 X82.565 Y97.569 E17.65073
G1 X82.343 Y95.035 E17.73533
G1 X82.054 Y92.536 E17.819
G1 X81.683 Y89.969 E17.90527
G1 X81.312 Y87.805 E17.97829
G1 X81.201 Y86.935 E18.00746
G1 X81.166 Y86.518 E18.02138
G1 X81.125 Y85.553 E18.05351
G1 X81.187 Y84.386 E18.09238
G1 X81.255 Y83.746 E18.11378
G1 X81.39 Y82.853 E18.14382
G1 X81.52 Y82.28 E18.16336
G1 X81.64 Y81.814 E18.17937
G1 X81.937 Y80.857 E18.2127
G1 X82.032 Y80.597 E18.2219
G1 X82.358 Y79.81 E18.25024
G1 X82.535 Y79.428 E18.26424
G1 X83.076 Y78.414 E18.30247
G1 X83.278 Y78.082 E18.31539
G1 X83.937 Y77.126 E18.35401
G1 X84.247 Y76.727 E18.37082
G1 X84.953 Y75.911 E18.4067
G1 X85.159 Y75.697 E18.41658
G1 X85.81 Y75.079 E18.44644
G1 X86.342 Y74.622 E18.46976
G1 X88.771 Y72.634 E18.57416
G1 X90.717 Y70.94 E18.65997
G1 X92.555 Y69.248 E18.74307
G1 X94.372 Y67.48 E18.82739
G1 X96.18 Y65.615 E18.91378
G1 X97.956 Y63.692 E19.00084
G1 X98.576 Y63.051 E19.03051
G1 X99.235 Y62.433 E19.06055
G1 X99.945 Y61.876 E19.09057
G1 X100.702 Y61.383 E19.12062
G1 X101.5 Y60.96 E19.15065
G1 X102.332 Y60.609 E19.18069
G1 X102.984 Y60.392 E19.20354
G1 X103.766 Y60.164 E19.23064
G1 X104.281 Y60.026 E19.24837
G1 X105.163 Y59.831 E19.27841
G1 X106.058 Y59.715 E19.30843
G1 X106.961 Y59.678 E19.33849
G1 X107.863 Y59.722 E19.36853
G1 X108.757 Y59.845 E19.39854
G1 X109.512 Y60.012 E19.42426
G1 X110.247 Y60.205 E19.44953
G1 X110.983 Y60.422 E19.47506
G1 X111.834 Y60.724 E19.50509
G1 X112.655 Y61.1 E19.53512
G1 X113.44 Y61.547 E19.56517
G1 X114.182 Y62.062 E19.59521
G1 X114.876 Y62.64 E19.62525
G1 X115.299 Y63.049 E19.64482
G1 X115.879 Y63.649 E19.67257
G1 X116.744 Y64.587 E19.71501
G1 X118.855 Y66.909 E19.81939
G1 X119.477 Y67.581 E19.84984
G1 X120.06 Y68.271 E19.87989
G1 X120.461 Y68.827 E19.90269
G1 X121.671 Y70.631 E19.97494
G1 X123.14 Y72.704 E20.05944
G1 X124.684 Y74.757 E20.14488
G1 X126.241 Y76.711 E20.22798
G1 X127.889 Y78.662 E20.31292
G1 X129.62 Y80.597 E20.39928
G1 X131.544 Y82.656 E20.493
G1 X132.131 Y83.342 E20.52303
G1 X132.655 Y84.078 E20.55308
G1 X133.112 Y84.857 E20.58312
G1 X133.498 Y85.673 E20.61315
G1 X133.856 Y86.669 E20.64835
G1 X134.256 Y88.004 E20.6947
G1 X134.443 Y88.683 E20.71812
G1 X134.644 Y89.563 E20.74815
G1 X134.766 Y90.458 E20.77819
G1 X134.808 Y91.517 E20.81344
G1 X134.793 Y92.645 E20.85096
G1 X134.772 Y93.408 E20.87635
G1 X134.774 Y95.992 E20.96229
G1 X134.808 Y97.654 E21.01758
G1 X134.786 Y98.557 E21.04762
G1 X134.685 Y99.454 E21.07765
G1 X134.521 Y100.274 E21.10546
G1 X134.243 Y101.417 E21.14459
G1 X133.664 Y103.942 E21.23075
G1 X133.158 Y106.479 E21.31679
G1 X132.738 Y108.945 E21.39999
G1 X132.38 Y111.472 E21.48488
G1 X132.097 Y113.983 E21.56892
G1 X131.884 Y116.518 E21.65353
G1 X131.742 Y119.06 E21.73821
G1 X131.674 Y121.557 E21.8213
G1 X131.68 Y122.653 E21.85775
G1 X131.67 Y122.899 E21.86594
G1 X131.666 Y124.16 E21.90788
G1 X131.623 Y125.062 E21.93791
G1 X131.5 Y125.957 E21.96796
G1 X131.299 Y126.837 E21.99798
G1 X131.02 Y127.696 E22.02802
G1 X130.667 Y128.527 E22.05805
G1 X130.379 Y129.083 E22.07888
G1 X129.981 Y129.796 E22.10604
G1 X129.439 Y130.736 E22.14213
G1 X129.004 Y131.467 E22.17042
G1 X128.508 Y132.222 E22.20047
G1 X127.946 Y132.929 E22.2305
G1 X127.324 Y133.584 E22.26055
G1 X126.782 Y134.071 E22.28478
G1 X126.248 Y134.515 E22.30788
G1 X125.007 Y135.518 E22.36095
G1 X123.087 Y137.159 E22.44496
G1 X121.195 Y138.873 E22.52987
G1 X119.366 Y140.62 E22.61399
G1 X118.685 Y141.214 E22.64405
G1 X117.956 Y141.746 E22.67407
G1 X117.181 Y142.211 E22.70413
G1 X116.369 Y142.606 E22.73416
G1 X115.166 Y143.039 E22.77668
G1 X113.74 Y143.45 E22.82604
G1 X113.024 Y143.638 E22.85067
G1 X112.463 Y143.768 E22.86982
G1 X110.897 Y144.086 E22.92297
G1 X108.333 Y144.653 E23.01031
G1 X106.433 Y145.122 E23.0754
G1 X105.547 Y145.299 E23.10545
G1 F2700 E18.10545
G0 F6000 X100.772 Y84.582
G0 X100.771 Y79.929
G0 X107.165 Y72.12
G1 F2700 E23.10545
G1 F1200 X107.011 Y72.274 E23.11269
G1 X106.867 Y72.232 E23.11768
G1 X106.704 Y72.069 E23.12535
G1 X106.681 Y71.992 E23.12802
G1 X106.709 Y71.897 E23.13131
G1 X106.836 Y71.763 E23.13746
G1 X106.939 Y71.734 E23.14101
G1 X107.042 Y71.763 E23.14457
